coffe/django.svg

<svg width="39" height="48" viewBox="0 0 39 48" fill="none" xmlns="http://www.w3.org/2000/svg">
<path fill-rule="evenodd" clip-rule="evenodd" d="M17.3604 0H25.1972V36.0221C21.1831 36.7836 18.228 37.0832 15.0306 37.0832C5.45899 37.0732 0.476532 32.7847 0.476532 24.5485C0.476532 16.6128 5.76157 11.4626 13.9514 11.4626C15.2223 11.4626 16.1904 11.563 17.3604 11.8634V0ZM14.9925 17.9542C15.9608 17.9542 16.7172 18.0544 17.635 18.355V30.8507C16.5155 31.001 15.8095 31.0499 14.9422 31.0499C10.9281 31.0499 8.73932 28.7655 8.73932 24.6283C8.73932 20.3789 11.0288 17.9542 14.9925 17.9542Z" fill="#A07250"/>
<path d="M29.3961 0H37.2329V7.98579H29.3961V0Z" fill="#A07250"/>
<path d="M38.0127 12.4297V30.4655C38.0127 36.6766 37.5487 39.6635 36.1871 42.2387C34.9162 44.7145 33.242 46.2757 29.7825 48L22.5106 44.5633C25.9701 42.951 27.6443 41.5263 28.7135 39.352C29.8329 37.1287 30.1859 34.5535 30.1859 27.7801V12.4299L38.0127 12.4297Z" fill="#A07250"/>
</svg>

<svg xmlns="http://www.w3.org/2000/svg" width="39" height="48" fill="none"><path fill="#A07250" fill-rule="evenodd" d="M17.4 0h7.8v36c-4 .8-7 1-10.2 1C5.5 37 .5 32.9.5 24.6c0-7.9 5.3-13 13.5-13 1.2 0 2.2 0 3.4.4V0ZM15 18c1 0 1.7 0 2.6.4v12.5L15 31c-4 0-6.2-2.2-6.2-6.4S11 18 15 18Z" clip-rule="evenodd"/><path fill="#A07250" d="M29.4 0h7.8v8h-7.8V0ZM38 12.4v18c0 6.3-.5 9.3-1.8 11.8s-3 4-6.4 5.8l-7.3-3.4c3.5-1.6 5.1-3 6.2-5.2 1.1-2.3 1.5-4.8 1.5-11.6V12.4H38Z"/></svg>
